X:102
T:Massacre of Glencoe, The
T:Mort Ghlinne-comhainn
R:Slow Air
S:Simon Fraser Collection
N:No.57
O:Scottish
M:6/8
L:1/8
Q:3/8=100
K:G
D<G zG2F|A2F G<Dz|D<B zB2A|B2c B2A|
G2A B2A|B2c d2G|Agz GDz|G2F A2G:|
|:G<e zd2c|c2B BAz|B<g zd2c|c2B B2c|
d<bz g2d|dcz cBz|d2G GDz|G2F A2G:|

